!!!COM: Palestrina, Giovanni Perluigi da
!!!OPR: Missa Viri Galilaei
!!!OMD: Gloria
!!!OTL: First Section
**kern	**kern	**kern	**kern	**kern	**kern
*Ibass	*Itenor	*Itenor	*Icalto	*Icalto	*Icant
!Bassus	!Tenor 2	!Tenor 1	!Altus 2	!Altus 1	!Cantus
*clefF4	*clefGv2	*clefGv2	*clefG2	*clefG2	*clefG2
*k[b-]	*k[b-]	*k[b-]	*k[b-]	*k[b-]	*k[b-]
*G:dor	*G:dor	*G:dor	*G:dor	*G:dor	*G:dor
*M4/2	*M4/2	*M4/2	*M4/2	*M4/2	*M4/2
=1	=1	=1	=1	=1	=1
0r	0r	0r	1.d	1r	0r
.	.	.	.	[1a	.
.	.	.	2d	.	.
=2	=2	=2	=2	=2	=2
0r	1.d	0r	0f	2a]	1.dd
.	.	.	.	2a	.
.	.	.	.	1a	.
.	2d	.	.	.	2dd
=3	=3	=3	=3	=3	=3
0r	1B-	0r	1d	1g	1dd
.	1A	.	1e	[1a	1cc
=4	=4	=4	=4	=4	=4
0r	2d	0r	2f	2a]	1.dd
.	2G	.	1b-	2g	.
.	2B-	.	.	2f	.
.	2F	.	[2a	2f	2cc
=5	=5	=5	=5	=5	=5
0r	1G	0r	4a]	0d	2.b-
.	.	.	4g	.	.
.	.	.	1g	.	.
.	.	.	.	.	8a
.	.	.	.	.	8g
.	2r	.	.	.	2a
.	[2d	.	2f#	.	2a
=6	=6	=6	=6	=6	=6
1.G	4d]	1.d	0g	2r	2g
.	4c	.	.	.	.
.	4B-	.	.	1b-	1dd
.	4A	.	.	.	.
.	2G	.	.	.	.
2G	2g	2d	.	2b-	2dd
=7	=7	=7	=7	=7	=7
1B-	1f	1d	0r	1b-	2.dd
.	.	.	.	.	4ee
1F	1f	1c	.	1a	[1ff
=8	=8	=8	=8	=8	=8
2.BB-	1f	1.d	2r	2.b-	1ff]
.	.	.	1B-	.	.
4C	.	.	.	4a	.
4D	1f	.	.	4f	1ff
4E	.	.	.	4g	.
2F	.	2c	2A	[2a	.
=9	=9	=9	=9	=9	=9
1G	0r	2.B-	2d	4a]	0dd
.	.	.	.	4g	.
.	.	.	2d	1g	.
.	.	8A	.	.	.
.	.	8G	.	.	.
1D	.	1A	1d	.	.
.	.	.	.	2f#	.
=10	=10	=10	=10	=10	=10
0G	2r	1G	1d	0g	1b
.	2d	.	.	.	.
.	1d	2r	2r	.	2r
.	.	2g	2b	.	2dd
=11	=11	=11	=11	=11	=11
0r	1G	1g	1b	0r	1dd
.	1g	1c	1cc	.	1ee-
=12	=12	=12	=12	=12	=12
2r	2r	1g	2b-	2r	1dd
2G	2d	.	2g	2b-	.
2G	2d	1r	2g	2b-	1r
[2C	[2e-	.	[2g	[2cc	.
=13	=13	=13	=13	=13	=13
4C]	4e-]	1r	4g]	4cc]	1r
4C	4e-	.	4g	4cc	.
2C	2e-	.	2g	2cc	.
1G	1d	2r	2g	2b-	2r
.	.	[2G	[2b-	[2g	[2dd
=14	=14	=14	=14	=14	=14
0r	0r	2G]	2b-]	2g]	2dd]
.	.	2G	2b-	2g	2dd
.	.	1d	4a	1f#	1dd
.	.	.	4g	.	.
.	.	.	4a	.	.
.	.	.	4b-	.	.
=15	=15	=15	=15	=15	=15
1r	1r	1c	2cc	1g	1ee-
.	.	.	2cc	.	.
1D	2r	2d	2a	2f	[1dd
.	2d	2d	2f	2a	.
=16	=16	=16	=16	=16	=16
2G	2d	2B-	2g	2b-	1dd]
2G	2d	2G	2g	2b-	.
1F	1f	2A	1cc	1a	1r
.	.	2A	.	.	.
=17	=17	=17	=17	=17	=17
1C	2e	1c	2cc	0g	0r
.	2.g	.	4c	.	.
.	.	.	4d	.	.
2.c	.	1r	4e	.	.
.	4f	.	4f	.	.
.	4e	.	[2g	.	.
4B-	4d	.	.	.	.
=18	=18	=18	=18	=18	=18
1A	1c	1r	2g]	1.cc	0r
.	.	.	2f#	.	.
1G	1d	2r	1g	.	.
.	.	[2d	.	4b	.
.	.	.	.	4a	.
=19	=19	=19	=19	=19	=19
1.G	1r	2d]	2r	2b	1.dd
.	.	2d	1g	1b	.
.	2r	1d	.	.	.
2G	[2d	.	2g	2b	2dd
=20	=20	=20	=20	=20	=20
1G	4d]	1G	1.g	1b	1dd
.	4d	.	.	.	.
.	2d	.	.	.	.
1C	2.c	2G	.	2.cc	1ee-
.	.	2G	[2cc	.	.
.	4c	.	.	4cc	.
=21	=21	=21	=21	=21	=21
2C	2e-	1c	4cc]	1g	2ee-
.	.	.	4cc	.	.
2C	1e-	.	2cc	.	2ee-
1E-	.	2.G	1b-	1g	1ee-
.	[2B-	.	.	.	.
.	.	4A	.	.	.
=22	=22	=22	=22	=22	=22
0BB-	4B-]	0B-	0b-	2f	0dd
.	4c	.	.	.	.
.	4d	.	.	2f	.
.	4e	.	.	.	.
.	[1f	.	.	2f	.
.	.	.	.	[2b-	.
=23	=23	=23	=23	=23	=23
1.F	0f]	2r	0r	2b-]	1.cc
.	.	2c	.	4a	.
.	.	.	.	4g	.
.	.	2c	.	[1a	.
2F	.	[2f	.	.	2cc
=24	=24	=24	=24	=24	=24
2.c	0r	2f]	0r	2a]	2.cc
.	.	4e	.	4g	.
4d	.	4d	.	4f	4b-
2c	.	2e	.	2g	2cc
2A	.	2c	.	2a	2cc
=25	=25	=25	=25	=25	=25
1G	0r	2.g	0r	2b-	2dd
.	.	.	.	2b-	2.dd
.	.	4g	.	.	.
1d	.	2f	.	2a	.
.	.	.	.	.	4cc
.	.	[2f	.	2f	4a
.	.	.	.	.	4b-
=26	=26	=26	=26	=26	=26
1c	1r	4f]	1r	2.g	1cc
.	.	8e	.	.	.
.	.	8d	.	.	.
.	.	2e	.	.	.
.	.	.	.	4a	.
1B-	2r	1f	2r	2.b-	2dd
.	[2B-	.	[2b-	.	[2dd
.	.	.	.	8a	.
.	.	.	.	8g	.
=27	=27	=27	=27	=27	=27
0r	4B-]	0r	4b-]	1f	4dd]
.	4B-	.	4b-	.	4dd
.	2B-	.	2b-	.	2dd
.	2.f	.	2.a	1r	2.cc
.	4g	.	4g	.	4b-
=28	=28	=28	=28	=28	=28
0r	2f	0r	2a	1r	2cc
.	2d	.	2b-	.	2dd
.	1c	.	1cc	2r	1ee-
.	.	.	.	2g	.
=29	=29	=29	=29	=29	=29
0r	1g	0r	1b-	2g	2dd
.	.	.	.	1b-	4cc
.	.	.	.	.	4b-
.	1f	.	2r	.	[1cc
.	.	.	[2f	4a	.
.	.	.	.	4g	.
=30	=30	=30	=30	=30	=30
1.F	0r	2r	2f]	2a	1cc]
.	.	2c	2f	2a	.
.	.	2c	1cc	2a	1r
2F	.	[2f	.	2a	.
=31	=31	=31	=31	=31	=31
1c	0r	2f]	1.cc	1g	0r
.	.	4e	.	.	.
.	.	4d	.	.	.
2c	.	2e	.	2g	.
2d	.	2d	2b-	2f	.
=32	=32	=32	=32	=32	=32
2c	0r	2.e	2cc	2g	0r
2A	.	.	2c	2a	.
.	.	4f	.	.	.
1G	.	2g	2.d	2.b-	.
.	.	2g	.	.	.
.	.	.	4e	8a	.
.	.	.	.	8g	.
=33	=33	=33	=33	=33	=33
2.F	0r	2c	1f	0a	0r
.	.	2.d	.	.	.
4G	.	.	.	.	.
1A	.	.	1e	.	.
.	.	4c#	.	.	.
.	.	4c#	.	.	.
.	.	8B	.	.	.
.	.	8c#	.	.	.
=34	=34	=34	=34	=34	=34
1D	2r	1d	2r	2r	2r
.	2.d	.	2.f#	2.a	2.dd
1r	.	1r	.	.	.
.	4d	.	4f#	4a	4dd
.	2d	.	2f#	2a	2dd
=35	=35	=35	=35	=35	=35
0r	4G	0r	2g	1b-	1dd
.	4A	.	.	.	.
.	4B-	.	2g	.	.
.	4c	.	.	.	.
.	2d	.	4f	2a	2dd
.	.	.	4g	.	.
.	2d	.	4a	2f	2ff
.	.	.	4b-	.	.
=36	=36	=36	=36	=36	=36
0r	2c	0r	2cc	2g	2ee-
.	2B-	.	2f	2.b-	1dd
.	2e-	.	2g	.	.
.	.	.	.	4a	.
.	2e-	.	2g	[2g	2cc
=37	=37	=37	=37	=37	=37
2r	2.d	2r	2a	2g]	0dd
2.D	.	2.d	2.a	4f	.
.	8c	.	.	4e	.
.	8B-	.	.	.	.
.	1A	.	.	2.f	.
4D	.	4d	4a	.	.
2D	.	2d	2a	.	.
.	.	.	.	4e	.
=38	=38	=38	=38	=38	=38
4D	2r	1f	1a	2d	0r
4E	.	.	.	.	.
4F	4A	.	.	2d	.
4G	4B-	.	.	.	.
2A	4c	2e	2a	1c	.
.	4d	.	.	.	.
2A	4e	2a	2cc	.	.
.	4f	.	.	.	.
=39	=39	=39	=39	=39	=39
2G	2g	2d	2b-	0r	0r
2F	2c	2.f	1a	.	.
2B-	2d	.	.	.	.
.	.	4e	.	.	.
2B-	2d	[2d	2g	.	.
=40	=40	=40	=40	=40	=40
1A	1e	2d]	0a	1r	1r
.	.	2c#	.	.	.
1D	1d	[1d	.	2f	2r
.	.	.	.	4f	2ff
.	.	.	.	4e	.
=41	=41	=41	=41	=41	=41
0B-	2r	1d]	1b-	4d	4ff
.	.	.	.	4c	4ee
.	2f	.	.	4B-	4dd
.	.	.	.	4A	4cc
.	4f	2r	1b-	4B-	4dd
.	4e	.	.	4c	4cc
.	4d	2f	.	4d	4b-
.	4c	.	.	4e	4a
=42	=42	=42	=42	=42	=42
0B-	4d	4f	2r	1f	2b-
.	4c	4e	.	.	.
.	4B-	4d	2f	.	2.dd
.	4A	4c	.	.	.
.	1B-	4d	4f	[1b-	.
.	.	4c	4e	.	4ee
.	.	4B-	4d	.	[2ff
.	.	4A	4c	.	.
=43	=43	=43	=43	=43	=43
0BB-	1f	1B-	4d	1b-]	4ff]
.	.	.	4c	.	4ee
.	.	.	2B-	.	4dd
.	.	.	.	.	4cc
.	2.d	1B-	1b-	1f	1dd
.	4e	.	.	.	.
=44	=44	=44	=44	=44	=44
1F	2f	1c	1a	2r	2cc
.	2f	.	.	2a	2cc
1r	2e	1r	2r	2g	2cc
.	2d	.	2f	2f	2b
=45	=45	=45	=45	=45	=45
1r	1c	1r	2f	1g	1cc
.	.	.	2e	.	.
2r	2B-	2r	2f	1b-	1dd
2G	2B-	2d	2g	.	.
=46	=46	=46	=46	=46	=46
2F	2A	2d	1r	2r	0r
2E	2G	2c#	.	2g	.
1D	2A	1d	2r	2g	.
.	2d	.	2d	2f#	.
=47	=47	=47	=47	=47	=47
0r	2c	2r	2e	1g	2r
.	2B-	2g	2d	.	2dd
.	1A	2f	1a	1r	2dd
.	.	2e	.	.	2cc#
=48	=48	=48	=48	=48	=48
1r	4B-	1d	0f	1r	2dd
.	4A	.	.	.	.
.	4B-	.	.	.	4d
.	4c	.	.	.	4e
2r	2d	1d	.	1a	4f
.	.	.	.	.	4g
2d	2f	.	.	.	4a
.	.	.	.	.	4b-
=49	=49	=49	=49	=49	=49
2c	2e	0r	0r	2a	4cc
.	.	.	.	.	4a
2B-	2d	.	.	2g	1dd
1A	1e	.	.	1a	.
.	.	.	.	.	2cc#
=50	=50	=50	=50	=50	=50
1D	1f	2r	2r	1a	1dd
.	.	2d	2a	.	.
1r	2e	2c	2a	1r	2r
.	2d	2B-	2g	.	2dd
=51	=51	=51	=51	=51	=51
1r	1e	1A	1a	1r	2dd
.	.	.	.	.	2cc#
1G	1d	2.B-	2g	1b-	[1dd
.	.	.	[2g	.	.
.	.	4c	.	.	.
=52	=52	=52	=52	=52	=52
2G	2r	1d	4g]	2b-	0dd]
.	.	.	4g	.	.
2F#	2d	.	2a	2a	.
1G	2B-	[1d	1b-	1g	.
.	2G	.	.	.	.
=53	=53	=53	=53	=53	=53
[0D	1A	2d]	[0a	[0f#	[0dd
.	.	4c	.	.	.
.	.	4B-	.	.	.
.	1d	1A	.	.	.
=54	=54	=54	=54	=54	=54
0D]	0d	0A	0a]	0f#]	0dd]
=55	=55	=55	=55	=55	=55
0r	0r	1d	1r	0r	0r
.	.	1e	1g	.	.
=56	=56	=56	=56	=56	=56
0r	0r	1f#	1a	0r	1r
.	.	2.g	1b	.	1dd
.	.	4f	.	.	.
=57	=57	=57	=57	=57	=57
0r	0r	4e	2.cc	0r	1ee
.	.	4d	.	.	.
.	.	2c	.	.	.
.	.	.	4b-	.	.
.	.	1d	4a	.	1ff#
.	.	.	4g	.	.
.	.	.	2a	.	.
=58	=58	=58	=58	=58	=58
0r	0r	1G	1b-	0r	2gg
.	.	.	.	.	2dd
.	.	2A	2a	.	2cc
.	.	2B-	2g	.	2b-
=59	=59	=59	=59	=59	=59
0r	0r	1.d	4f	0r	4a
.	.	.	4e	.	4g
.	.	.	4d	.	4f
.	.	.	4e	.	4g
.	.	.	4f	.	4a
.	.	.	4g	.	4b-
.	.	4c	[2a	.	[2cc
.	.	4d	.	.	.
=60	=60	=60	=60	=60	=60
0r	0r	1e-	4a]	0r	4cc]
.	.	.	4g	.	4b-
.	.	.	1g	.	4b-
.	.	.	.	.	8a
.	.	.	.	.	8g
.	.	1d	.	.	1a
.	.	.	2f#	.	.
=61	=61	=61	=61	=61	=61
0G	0B	0d	1g	1r	1g
.	.	.	1r	1g	1dd
=62	=62	=62	=62	=62	=62
1C	1c	1c	2r	1g	1ee-
.	.	.	1g	.	.
2.G	[1d	1B-	.	[1b-	[1dd
.	.	.	2g	.	.
4A	.	.	.	.	.
=63	=63	=63	=63	=63	=63
1B-	1d]	4B-	2f	2b-]	1dd]
.	.	4c	.	.	.
.	.	4d	4B-	1f	.
.	.	4e	4c	.	.
1BB-	1d	2f	4d	.	1b-
.	.	.	4e	.	.
.	.	[2F	2f	[2b-	.
=64	=64	=64	=64	=64	=64
0F	0c	4F]	0f	2b-]	0cc
.	.	4G	.	.	.
.	.	4A	.	4a	.
.	.	4B-	.	4g	.
.	.	2c	.	1a	.
.	.	2F	.	.	.
=65	=65	=65	=65	=65	=65
0BB-	0B-	1F	2d	1b-	0dd
.	.	.	2.f	.	.
.	.	1d	.	1r	.
.	.	.	4e	.	.
.	.	.	2d	.	.
=66	=66	=66	=66	=66	=66
0r	1r	1e	1c	1g	0r
.	[1d	1f#	1r	1a	.
=67	=67	=67	=67	=67	=67
1G	1d]	0g	1r	1b	0r
1C	1e	.	1G	2.cc	.
.	.	.	.	4b-	.
=68	=68	=68	=68	=68	=68
1D	1f#	1r	1d	4a	0r
.	.	.	.	4g	.
.	.	.	.	2a	.
2G	2g	2r	2.d	1b-	.
2B-	2d	2G	.	.	.
.	.	.	4e	.	.
=69	=69	=69	=69	=69	=69
2F	2c	2A	2f	2a	0r
2G	2B-	2B-	1d	2g	.
1D	4A	1d	.	4f	.
.	4G	.	.	4g	.
.	4F	.	[2f	4a	.
.	4G	.	.	4b-	.
=70	=70	=70	=70	=70	=70
1.F	4A	4c	2f]	4a	0r
.	4B-	4B-	.	4g	.
.	4c	4A	2f	4f	.
.	4d	4G	.	4e	.
.	2.c	2A	2f	2f	.
2C	.	2G	2e-	[2g	.
.	4B-	.	.	.	.
=71	=71	=71	=71	=71	=71
1D	1A	2r	2.d	2g]	1.dd
.	.	2.d	.	2f#	.
.	.	.	4c	.	.
1r	2G	.	4B-	2g	.
.	.	4c	4A	.	.
.	[2G	4B-	2G	[2b-	2dd
.	.	4A	.	.	.
=72	=72	=72	=72	=72	=72
1.E-	2G]	1.G	1.g	4b-]	1b-
.	.	.	.	4a	.
.	2B-	.	.	4g	.
.	.	.	.	4f	.
.	1B-	.	.	2e-	2r
2BB-	.	2B-	2f	2d	2dd
=73	=73	=73	=73	=73	=73
[0BB-	2r	1B-	0f	2.d	2dd
.	2d	.	.	.	2.ff
.	.	.	.	4c	.
.	2d	2r	.	1B-	.
.	.	.	.	.	4ff
.	[2f	2d	.	.	2dd
=74	=74	=74	=74	=74	=74
0BB-]	4f]	2d	1r	2r	1b-
.	4f	.	.	.	.
.	2d	2.f	.	2d	.
.	1B-	.	1d	2d	1ff
.	.	4f	.	.	.
.	.	2d	.	[2f	.
=75	=75	=75	=75	=75	=75
1r	2.f	2.B-	2d	4f]	2.dd
.	.	.	.	4f	.
.	.	.	2.f	2d	.
.	4e	4c	.	.	4ee
1BB-	4d	2.d	.	1B-	2ff
.	4c	.	4f	.	.
.	2B-	.	[2d	.	[2f
.	.	8c	.	.	.
.	.	8B-	.	.	.
=76	=76	=76	=76	=76	=76
2D	[0F	0A	2d]	2.f	4f]
.	.	.	.	.	4g
2.F	.	.	2c	.	4a
.	.	.	.	4g	4b-
.	.	.	[1f	1a	2cc
4F	.	.	.	.	.
2D	.	.	.	.	[2dd
=77	=77	=77	=77	=77	=77
1BB-	0F]	4B-	1f]	2d	4dd]
.	.	4c	.	.	4cc
.	.	4d	.	2.f	1b-
.	.	4B-	.	.	.
1F	.	1c	[1f	.	.
.	.	.	.	4e-	.
.	.	.	.	2c	2a
=78	=78	=78	=78	=78	=78
0BB-	1r	2.B-	1f]	1d	2b-
.	.	.	.	.	2dd
.	.	4c	.	.	.
.	1B-	1d	2r	2r	1ff
.	.	.	2b-	2d	.
=79	=79	=79	=79	=79	=79
0r	1d	0r	1a	1f	2dd
.	.	.	.	.	2ff
.	2d	.	2a	2d	4ff
.	.	.	.	.	4ee
.	2d	.	2a	2f	4dd
.	.	.	.	.	4cc
=80	=80	=80	=80	=80	=80
0r	2B-	0r	2b-	2f	2dd
.	2c	.	2g	2e	2cc
.	1d	.	2f	1f	2a
.	.	.	[2b-	.	[2dd
=81	=81	=81	=81	=81	=81
1r	1e-	1r	2b-]	1g	2dd]
.	.	.	4a	.	2cc
.	.	.	4g	.	.
2r	1d	2r	2f	2a	2dd
[2B-	.	[2f	2d	[2b-	[2dd
=82	=82	=82	=82	=82	=82
2B-]	0r	2f]	1r	2b-]	2dd]
2F	.	2f	.	2a	2cc
1G	.	2d	2r	1g	1b-
.	.	4B-	2d	.	.
.	.	4c	.	.	.
=83	=83	=83	=83	=83	=83
1D	2r	4d	2d	2.f	2a
.	.	4e	.	.	.
.	1d	4f	4d	.	1ff
.	.	4g	4e	4e	.
1r	.	1a	4f	2d	.
.	.	.	4g	.	.
.	2c	.	[2a	2e	[2ee
=84	=84	=84	=84	=84	=84
0r	1B-	2.d	2a]	2f	4ee]
.	.	.	.	.	4dd
.	.	.	2g	2d	1dd
.	.	4e	.	.	.
.	1A	2f	2.a	2r	.
.	.	2e	.	2a	2cc#
.	.	.	4g	.	.
=85	=85	=85	=85	=85	=85
2r	2.d	2d	2f#	2a	0dd
1G	.	4G	2g	2b-	.
.	4c	4A	.	.	.
.	2B-	4B-	1d	2g	.
.	.	4G	.	.	.
2F	2A	[2d	.	[2a	.
=86	=86	=86	=86	=86	=86
2E-	2B-	2d]	0r	4a]	1g
.	.	.	.	4g	.
2E-	4A	2c	.	1g	.
.	4G	.	.	.	.
1D	1A	1d	.	.	1dd
.	.	.	.	2f#	.
=87	=87	=87	=87	=87	=87
1G	1G	1d	2r	0g	2.b
.	.	.	2.g	.	.
.	.	.	.	.	4cc
[1G	2.B-	2r	.	.	[1dd
.	.	.	4a	.	.
.	.	[2d	[2b-	.	.
.	4A	.	.	.	.
=88	=88	=88	=88	=88	=88
2G]	2G	2d]	2b-]	0r	1dd]
2F#	2A	2d	2a	.	.
2G	2B	2d	2g	.	1r
2C	2c	2e	2g	.	.
=89	=89	=89	=89	=89	=89
2D	2A	2f#	4r	1r	1r
.	.	.	2d	.	.
2E-	2G	2g	.	.	.
.	.	.	4c	.	.
1D	1A	1f#	1d	1a	[1dd
=90	=90	=90	=90	=90	=90
1G	1G	1g	2d	1.b-	1dd]
.	.	.	2g	.	.
1r	1r	1d	2g	.	[1dd
.	.	.	2f#	2a	.
=91	=91	=91	=91	=91	=91
1r	0r	1r	2g	2b-	2dd]
.	.	.	2c	2cc	2ee
1D	.	2r	[1d	1a	2ff#
.	.	2A	.	.	2ff#
=92	=92	=92	=92	=92	=92
1G	2r	1B-	1d]	1g	1gg
.	2d	.	.	.	.
2G	[1d	2B-	1r	1r	1r
2F#	.	2A	.	.	.
=93	=93	=93	=93	=93	=93
2G	2d]	2B	1r	0r	0r
2C	2e	2c	.	.	.
1D	2f#	1A	1a	.	.
.	2f#	.	.	.	.
=94	=94	=94	=94	=94	=94
1G	2g	1G	1b	2r	1dd
.	2G	.	.	2g	.
1r	1c	1r	2cc	1g	1ee
.	.	.	4c	.	.
.	.	.	4d	.	.
=95	=95	=95	=95	=95	=95
0r	2c	0r	4e	1.g	2ee
.	.	.	4f	.	.
.	2B	.	2g	.	2dd
.	2c	.	2e	.	2ee
.	2A	.	2c	2a	2ff#
=96	=96	=96	=96	=96	=96
0r	1G	1r	1d	2b	0gg
.	.	.	.	2b	.
.	1c	2r	1e	1cc	.
.	.	2c	.	.	.
=97	=97	=97	=97	=97	=97
0F	2.A	4c	0f	2.cc	0ff
.	.	4B-	.	.	.
.	.	4A	.	.	.
.	4B-	4G	.	4b-	.
.	1c	2.A	.	4a	.
.	.	.	.	4g	.
.	.	.	.	2a	.
.	.	4G	.	.	.
=98	=98	=98	=98	=98	=98
1BB-	0B-	2F	0f	0b-	[0dd
.	.	2.f	.	.	.
2.B-	.	.	.	.	.
.	.	4e	.	.	.
.	.	[2d	.	.	.
4A	.	.	.	.	.
=99	=99	=99	=99	=99	=99
2.G	1.B-	4d]	0g	0b-	1dd]
.	.	4c	.	.	.
.	.	4B-	.	.	.
4F	.	4A	.	.	.
1E-	.	2.G	.	.	1ee-
.	2c	.	.	.	.
.	.	4A	.	.	.
=100	=100	=100	=100	=100	=100
1BB-	2d	1.B-	2f	1b-	0dd
.	2f	.	2d	.	.
2r	2f	.	4d	1r	.
.	.	.	4e	.	.
2D	2d	2A	4f	.	.
.	.	.	4g	.	.
=101	=101	=101	=101	=101	=101
4D	2f	2r	4a	2r	0r
4E	.	.	4g	.	.
4F	2f	2A	4a	2a	.
4G	.	.	4b-	.	.
4A	1e	4A	1cc	2a	.
4G	.	4B-	.	.	.
4A	.	4c	.	2a	.
4B-	.	4d	.	.	.
=102	=102	=102	=102	=102	=102
2.c	0r	4e	2cc	1g	0r
.	.	4d	.	.	.
.	.	4e	2.cc	.	.
4B-	.	4f	.	.	.
2c	.	2g	.	2e	.
.	.	.	4b-	.	.
2d	.	2f	[2a	[2f	.
=103	=103	=103	=103	=103	=103
2B-	1r	2d	2a]	2f]	0r
2B-	.	2d	2g	4e	.
.	.	.	.	4d	.
2.A	2r	[1e	2a	2c	.
.	2A	.	[2a	2c	.
4B-	.	.	.	.	.
=104	=104	=104	=104	=104	=104
1c	4A	1e]	2a]	4c	1r
.	4B-	.	.	4d	.
.	4c	.	1g	4e	.
.	4d	.	.	4f	.
1C	4e	1r	.	4g	2r
.	4d	.	.	4f	.
.	4e	.	2c	4g	2g
.	4f	.	.	4a	.
=105	=105	=105	=105	=105	=105
0G	1.g	2r	1d	1.b-	4g
.	.	.	.	.	4a
.	.	2G	.	.	4b-
.	.	.	.	.	4cc
.	.	4G	2r	.	4dd
.	.	4A	.	.	4cc
.	2g	4B-	2d	2b-	4dd
.	.	4c	.	.	4ee
=106	=106	=106	=106	=106	=106
0r	2.f	4d	4d	1.a	1.ff
.	.	4c	4e	.	.
.	.	4d	4f	.	.
.	4e	4e	4g	.	.
.	1d	2f	4a	.	.
.	.	.	4g	.	.
.	.	2f	4a	2f	2dd
.	.	.	4b-	.	.
=107	=107	=107	=107	=107	=107
0r	1c	1e	2cc	2g	1ee
.	.	.	2cc	1a	.
.	1d	2r	1a	.	1ff#
.	.	2a	.	[2d	.
=108	=108	=108	=108	=108	=108
0r	1G	1g	2.b-	2d]	2gg
.	.	.	.	2.b-	4g
.	.	.	4a	.	4a
.	1G	2.g	2g	.	4b-
.	.	.	.	4a	4cc
.	.	.	2b-	[2g	4dd
.	.	4f	.	.	4b-
=109	=109	=109	=109	=109	=109
0r	0A	2e	1a	2g]	2cc
.	.	2d	.	2f	1dd
.	.	1e	2a	2e	.
.	.	.	2e	2a	2cc#
=110	=110	=110	=110	=110	=110
2r	1d	0d	4f	2.a	0dd
.	.	.	4e	.	.
2D	.	.	4f	.	.
.	.	.	4g	4g	.
4D	2r	.	4a	2f	.
4E	.	.	4g	.	.
4F	2A	.	4a	2f	.
4G	.	.	4b-	.	.
=111	=111	=111	=111	=111	=111
4A	4A	2r	1.cc	1e	0r
4G	4B-	.	.	.	.
4A	4c	2A	.	.	.
4B-	4d	.	.	.	.
2c	4e	4A	.	[1e	.
.	4d	4B-	.	.	.
2c	4e	4c	2cc	.	.
.	4f	4d	.	.	.
=112	=112	=112	=112	=112	=112
1C	2g	4e	1cc	1e]	2r
.	.	4d	.	.	.
.	2c	4e	.	.	2g
.	.	4f	.	.	.
[1G	2d	[1g	[1b-	1d	4g
.	.	.	.	.	4a
.	2G	.	.	.	4b-
.	.	.	.	.	4cc
=113	=113	=113	=113	=113	=113
2G]	4G	2g]	1b-]	2r	4dd
.	4A	.	.	.	4cc
2G	4B-	2g	.	2d	4dd
.	4c	.	.	.	4ee
[1D	4d	2.f	[1a	4d	[1ff
.	4c	.	.	4e	.
.	4d	.	.	4f	.
.	4e	4e	.	4g	.
=114	=114	=114	=114	=114	=114
2D]	2f	2d	1a]	4a	2ff]
.	.	.	.	4g	.
2F	2F	1c	.	4a	2ff
.	.	.	.	4b-	.
1C	2G	.	1g	2cc	1ee-
.	2c	2G	.	2cc	.
=115	=115	=115	=115	=115	=115
0G	2d	1B-	2g	1b-	2dd
.	1d	.	2.b-	.	2g
.	.	1B-	.	2g	2.b-
.	.	.	4a	.	.
.	2d	.	[2g	2g	.
.	.	.	.	.	4cc
=116	=116	=116	=116	=116	=116
0D	0d	0A	2g]	2a	2dd
.	.	.	4f#	2a	2dd
.	.	.	4e	.	.
.	.	.	1f#	1a	1dd
=117	=117	=117	=117	=117	=117
0G	0d	0G	0g	0b	0dd
*-	*-	*-	*-	*-	*-
!!!CDT: 1525/^1526/-1594/2/2
!!!OCY: Italia
!!!AGN: Mass (Parody)
!!!AST: renaissance, vocal
!!!ASW: Motet 1569 (Palestrina)
!!!PWK: Masses, Book 12
!!!RNB: Cadence finals: D
!!!YOR: Le Opere Complete, v. 29, p. 159
!!!YOO: Rome, Italy: Fratelli Scalera
!!!END: 1992//
!!!EED: John Miller
!!!YEC: Copyright 2000, John Miller
!!!YEN: United States of America
!!!YEM: Rights to all derivative electronic formats reserved.
!!!YEM: Refer to licensing agreement for further details.
!!!YEM: This file must be accompanied by the licensing agreement.
!!!YEM: A copy of the licensing agreement may be found at http://www.music-cog.ohio-state.edu/HumdrumDatabases/Palestrina/license.txt
!!!EMD: converted to Humdrum by Bret Aarden
